Obsidian-SemiLight/actions/24s/select-rectangular.svg

<svg viewBox="0 0 24 24" xmlns="http://www.w3.org/2000/svg"><path d="m3 4v2h1v5 2 5h-1v2h2v-1h6 2 1 5v1h2v-2h-1v-5-2-1-4h1v-2h-2v1h-5-1-2-1-5v-1zm2 2h14v12h-6-2-6zm1 1v10h3v-1h-2v-8h2 8 1v-1zm10 2-.996094.9941406-.003906-.0039062-5 4.9980466.007812.007813-.003906 1.003906h-.003906v.990234.009766h2l.005859-.005859.003907-.003907c.004-.00002.005765.001854.009765.001954l-.005859-.00586.986328-.986328 4-3.996094-.705078-.708984-4.990234 4.986328-.59375-.591797 4.992187-4.988281.591797.59375.705078.703125 1-1z" fill="#4d4d4d"/></svg>

<svg xmlns="http://www.w3.org/2000/svg" viewBox="0 0 24 24">
  <defs id="defs3051">
    <style type="text/css" id="current-color-scheme">
      .ColorScheme-Text {
        color:#4d4d4d;
      }
      </style>
  </defs>
 <path style="fill:currentColor;fill-opacity:1;stroke:none" 
     d="M 3 4 L 3 6 L 4 6 L 4 11 L 4 13 L 4 18 L 3 18 L 3 20 L 5 20 L 5 19 L 11 19 L 13 19 L 14 19 L 19 19 L 19 20 L 21 20 L 21 18 L 20 18 L 20 13 L 20 11 L 20 10 L 20 6 L 21 6 L 21 4 L 19 4 L 19 5 L 14 5 L 13 5 L 11 5 L 10 5 L 5 5 L 5 4 L 3 4 z M 5 6 L 19 6 L 19 18 L 13 18 L 11 18 L 5 18 L 5 6 z M 6 7 L 6 17 L 9 17 L 9 16 L 7 16 L 7 8 L 9 8 L 17 8 L 18 8 L 18 7 L 6 7 z M 16 9 L 15.003906 9.9941406 L 15 9.9902344 L 10 14.988281 L 10.007812 14.996094 L 10.003906 16 L 10 16 L 10 16.990234 L 10 17 L 12 17 L 12.005859 16.994141 L 12.009766 16.990234 C 12.013766 16.990214 12.015531 16.992088 12.019531 16.992188 L 12.013672 16.986328 L 13 16 L 17 12.003906 L 16.294922 11.294922 L 11.304688 16.28125 L 10.710938 15.689453 L 15.703125 10.701172 L 16.294922 11.294922 L 17 11.998047 L 18 10.998047 L 16 9 z "
     class="ColorScheme-Text"
     />
</svg>
